tela-icon-theme/src/scalable/apps/gerbview.svg

<svg width="64" height="64" version="1.1" viewBox="0 0 64 64" xmlns="http://www.w3.org/2000/svg">
 <rect x="6.0001" y="6.0001" width="52" height="52" rx="7.9999" ry="7.9999" fill="#545454" stroke-width="3.5095"/>
 <path d="m14 6c-4.4319 0-8 3.5681-8 8h18.125v-5.625h-2.8125v-2.375h-7.3125zm15.75 0v7.2539c-1.3303 0.632-2.25 1.9879-2.25 3.5586s0.9197 2.9266 2.25 3.5586v8.8164l6.1875 6.1875h1.6875v1.125h9v-1.125h11.375v-3.375h-11.375v-1.125h-9v1.125h-0.5625l-3.9375-3.9375v-7.6914c1.3303-0.632 2.25-1.9879 2.25-3.5586s-0.9197-2.9266-2.25-3.5586v-7.2539h-3.375zm7.875 0v8h9v-1.125h11.287c-0.54517-3.8938-3.8634-6.875-7.9121-6.875h-12.375zm-22.5 13.625v1.125h-9.125v3.375h9.125v1.125h9v-5.625h-9zm22.5 0v5.625h9v-1.125h11.375v-3.375h-11.375v-1.125h-9zm-27.779 10.688c-1.864 0-3.375 1.511-3.375 3.375s1.511 3.375 3.375 3.375c1.2492 0 2.3402-0.6787 2.9238-1.6875h3.2637v1.125h9v-1.125h0.7793l3.9375 3.9375v18.688h3.375v-19.812l-6.1875-6.1875h-1.9043v-1.125h-9v1.125h-3.2637c-0.5836-1.0088-1.6746-1.6875-2.9238-1.6875zm39.029 8.4375-1.125 1.125h-8.4375l-1.6875 1.6875v16.438h12.375c4.4319 0 8-3.5681 8-8v-11.25h-9.125zm-37.688 2.25-1.125 1.125h-4.0625v7.875c0 4.4319 3.5681 8 8 8h11.25v-14.188l-1.6875-1.6875h-7.875l-1.125-1.125h-3.375z" fill="#ffffff" opacity=".5"/>
</svg>

<svg xmlns="http://www.w3.org/2000/svg" width="64" height="64"><rect width="52" height="52" x="6" y="6" fill="#545454" rx="8" ry="8"/><path fill="#fff" d="M14 6c-4.432 0-8 3.568-8 8h18.125V8.375h-2.813V6H14zm15.75 0v7.254a3.938 3.938 0 0 0 0 7.117v8.816l6.188 6.188h1.687V36.5h9v-1.125H58V32H46.625v-1.125h-9V32h-.563l-3.937-3.938v-7.69a3.938 3.938 0 0 0 0-7.118V6H29.75zm7.875 0v8h9v-1.125h11.287A7.974 7.974 0 0 0 50 6H37.625zm-22.5 13.625v1.125H6v3.375h9.125v1.125h9v-5.625h-9zm22.5 0v5.625h9v-1.125H58V20.75H46.625v-1.125h-9zM9.846 30.313a3.375 3.375 0 1 0 2.924 5.063h3.264V36.5h9v-1.125h.779l3.937 3.937v18.688h3.375V38.189l-6.187-6.187h-1.905v-1.125h-9v1.125H12.77a3.374 3.374 0 0 0-2.924-1.688zm39.029 8.438-1.125 1.125h-8.438l-1.687 1.687v16.438H50c4.432 0 8-3.568 8-8v-11.25h-9.125zM11.187 41l-1.125 1.125H5.999V50c0 4.431 3.569 8 8 8h11.25V43.813l-1.687-1.688h-7.875L14.562 41h-3.375z" opacity=".5"/></svg>
